icons/malaria_pv_microscope.svg

<svg width="48" height="48" viewBox="0 0 48 48" fill="none" xmlns="http://www.w3.org/2000/svg">
<path fill-rule="evenodd" clip-rule="evenodd" d="M24 42C33.9411 42 42 33.9411 42 24C42 14.0589 33.9411 6 24 6C14.0589 6 6 14.0589 6 24C6 33.9411 14.0589 42 24 42ZM24 44C35.0457 44 44 35.0457 44 24C44 12.9543 35.0457 4 24 4C12.9543 4 4 12.9543 4 24C4 35.0457 12.9543 44 24 44ZM12.4422 20.729C13.4726 20.5238 14.8238 19.9178 16.1685 18.8786C17.5132 17.8394 18.4404 16.6847 18.8988 15.7394C19.2077 15.1023 19.2226 14.7692 19.2109 14.6387C19.0875 14.5945 18.7615 14.5248 18.0671 14.6631C17.0367 14.8683 15.6854 15.4743 14.3407 16.5135C12.996 17.5526 12.0688 18.7074 11.6104 19.6527C11.3015 20.2898 11.2867 20.6229 11.2983 20.7534C11.4217 20.7976 11.7478 20.8673 12.4422 20.729ZM9.69277 21.9942C10.8729 23.5213 14.3197 22.8349 17.3914 20.4611C20.4632 18.0873 21.9966 14.925 20.8165 13.3979C19.6363 11.8708 16.1895 12.5572 13.1178 14.931C10.0461 17.3047 8.51263 20.4671 9.69277 21.9942ZM30.3533 29.2476C31.7897 30.115 32.8287 31.1422 33.3839 32.0157C33.7447 32.5834 33.8045 32.9025 33.8111 33.0363C33.6896 33.0927 33.3794 33.1884 32.709 33.1335C31.6775 33.0488 30.2846 32.6078 28.8481 31.7404C27.4116 30.8731 26.3727 29.8458 25.8175 28.9724C25.4566 28.4047 25.3969 28.0855 25.3903 27.9518C25.5117 27.8953 25.822 27.7996 26.4924 27.8546C27.5239 27.9392 28.9168 28.3803 30.3533 29.2476ZM31.387 27.5355C34.6736 29.52 36.5382 32.4532 35.5516 34.0872C34.565 35.7211 31.1009 35.437 27.8143 33.4525C24.5277 31.4681 22.6632 28.5348 23.6498 26.9009C24.6363 25.2669 28.1004 25.5511 31.387 27.5355ZM31.5856 20.5796C31.6107 19.5285 31.3145 18.0765 30.5939 16.5361C29.8734 14.9958 28.9487 13.8378 28.1258 13.1833C27.5702 12.7415 27.2479 12.6545 27.1181 12.6375C27.0479 12.748 26.9081 13.0512 26.8912 13.7608C26.8661 14.812 27.1623 16.264 27.8829 17.8043C28.6034 19.3446 29.5281 20.5027 30.351 21.1571C30.9066 21.599 31.2289 21.6859 31.3587 21.7029C31.4289 21.5924 31.5687 21.2892 31.5856 20.5796ZM32.2184 23.5407C33.9676 22.7225 34.0513 19.207 32.4055 15.6887C30.7597 12.1704 28.0075 9.9815 26.2584 10.7997C24.5092 11.6179 24.4255 15.1334 26.0713 18.6517C27.7171 22.1701 30.4693 24.3589 32.2184 23.5407ZM18.7808 31.5167C19.5643 33.0754 19.9115 34.5581 19.9163 35.6417C19.9197 36.4259 19.7637 36.741 19.6952 36.8442C19.5716 36.8376 19.2256 36.7748 18.5983 36.3042C17.7315 35.6539 16.7486 34.4909 15.9651 32.9322C15.1815 31.3735 14.8344 29.8909 14.8296 28.8072C14.8261 28.023 14.9822 27.7079 15.0506 27.6048C15.1742 27.6114 15.5202 27.6741 16.1475 28.1447C17.0144 28.795 17.9973 29.958 18.7808 31.5167ZM20.5677 30.6184C22.3518 34.1675 22.3678 37.7637 20.6033 38.6506C18.8389 39.5376 15.9622 37.3795 14.1781 33.8305C12.394 30.2814 12.3781 26.6853 14.1425 25.7983C15.907 24.9113 18.7836 27.0694 20.5677 30.6184ZM14.4991 18.9485C14.4991 19.5008 14.0514 19.9485 13.4991 19.9485C12.9468 19.9485 12.4991 19.5008 12.4991 18.9485C12.4991 18.3962 12.9468 17.9485 13.4991 17.9485C14.0514 17.9485 14.4991 18.3962 14.4991 18.9485ZM14.6795 17.7478C14.9557 17.7478 15.1795 17.524 15.1795 17.2478C15.1795 16.9717 14.9557 16.7478 14.6795 16.7478C14.4034 16.7478 14.1795 16.9717 14.1795 17.2478C14.1795 17.524 14.4034 17.7478 14.6795 17.7478ZM16.0397 18.3568C16.0397 18.6329 15.8158 18.8568 15.5397 18.8568C15.2635 18.8568 15.0397 18.6329 15.0397 18.3568C15.0397 18.0806 15.2635 17.8568 15.5397 17.8568C15.8158 17.8568 16.0397 18.0806 16.0397 18.3568ZM31.3299 32.5641C31.8822 32.5641 32.3299 32.1164 32.3299 31.5641C32.3299 31.0119 31.8822 30.5641 31.3299 30.5641C30.7776 30.5641 30.3299 31.0119 30.3299 31.5641C30.3299 32.1164 30.7776 32.5641 31.3299 32.5641ZM29.8742 30.6568C29.8742 30.9071 29.6713 31.1099 29.4211 31.1099C29.1709 31.1099 28.968 30.9071 28.968 30.6568C28.968 30.4066 29.1709 30.2037 29.4211 30.2037C29.6713 30.2037 29.8742 30.4066 29.8742 30.6568ZM29.3832 18.8565C29.9355 18.8565 30.3832 18.4087 30.3832 17.8565C30.3832 17.3042 29.9355 16.8565 29.3832 16.8565C28.8309 16.8565 28.3832 17.3042 28.3832 17.8565C28.3832 18.4087 28.8309 18.8565 29.3832 18.8565ZM31.3952 19.8837C31.3952 20.2703 31.0818 20.5837 30.6952 20.5837C30.3086 20.5837 29.9952 20.2703 29.9952 19.8837C29.9952 19.4971 30.3086 19.1837 30.6952 19.1837C31.0818 19.1837 31.3952 19.4971 31.3952 19.8837ZM17.7844 34.4759C18.3367 34.4759 18.7844 34.0282 18.7844 33.4759C18.7844 32.9236 18.3367 32.4759 17.7844 32.4759C17.2321 32.4759 16.7844 32.9236 16.7844 33.4759C16.7844 34.0282 17.2321 34.4759 17.7844 34.4759ZM18.2483 31.5549C18.2483 31.8052 18.0454 32.0081 17.7952 32.0081C17.5449 32.0081 17.342 31.8052 17.342 31.5549C17.342 31.3047 17.5449 31.1018 17.7952 31.1018C18.0454 31.1018 18.2483 31.3047 18.2483 31.5549ZM18.9946 35.9632C19.3812 35.9632 19.6946 35.6498 19.6946 35.2632C19.6946 34.8766 19.3812 34.5632 18.9946 34.5632C18.608 34.5632 18.2946 34.8766 18.2946 35.2632C18.2946 35.6498 18.608 35.9632 18.9946 35.9632Z" fill="black"/>
</svg>

<svg
  xmlns="http://www.w3.org/2000/svg"
  width="24"
  height="24"
  viewBox="0 0 24 24"
  fill="none"
  stroke="currentColor"
  stroke-width="2"
  stroke-linecap="round"
  stroke-linejoin="round"
>
  <path
    fill-rule="evenodd"
    d="M24 42c9.941 0 18-8.059 18-18S33.941 6 24 6 6 14.059 6 24s8.059 18 18 18m0 2c11.046 0 20-8.954 20-20S35.046 4 24 4 4 12.954 4 24s8.954 20 20 20M12.442 20.729c1.03-.205 2.382-.811 3.727-1.85s2.271-2.194 2.73-3.14c.309-.637.324-.97.312-1.1-.123-.044-.45-.114-1.144.024-1.03.205-2.382.811-3.726 1.85-1.345 1.04-2.272 2.194-2.73 3.14-.31.637-.324.97-.313 1.1.124.045.45.114 1.144-.024m-2.75 1.265c1.18 1.527 4.628.84 7.7-1.533 3.071-2.374 4.605-5.536 3.425-7.063s-4.628-.84-7.7 1.533c-3.07 2.374-4.604 5.536-3.424 7.063m20.661 7.254c1.437.867 2.476 1.894 3.03 2.768.362.567.421.887.428 1.02-.121.057-.432.152-1.102.097-1.032-.084-2.424-.525-3.86-1.393-1.437-.867-2.476-1.894-3.032-2.768-.36-.567-.42-.887-.427-1.02.122-.057.432-.152 1.102-.097 1.032.084 2.425.525 3.861 1.393m1.034-1.713c3.287 1.985 5.151 4.918 4.165 6.552-.987 1.634-4.451 1.35-7.738-.635-3.286-1.984-5.15-4.917-4.164-6.551s4.45-1.35 7.737.634m.199-6.955c.025-1.051-.271-2.503-.992-4.044-.72-1.54-1.645-2.698-2.468-3.353-.556-.441-.878-.528-1.008-.546-.07.111-.21.414-.227 1.124-.025 1.051.271 2.503.992 4.043.72 1.54 1.645 2.699 2.468 3.353.556.442.878.529 1.008.546.07-.11.21-.414.227-1.123m.632 2.96c1.75-.817 1.833-4.333.188-7.851-1.646-3.519-4.398-5.707-6.148-4.89-1.749.819-1.832 4.334-.187 7.853 1.646 3.518 4.398 5.707 6.147 4.889m-13.437 7.977c.783 1.558 1.13 3.041 1.135 4.125.004.784-.152 1.099-.22 1.202-.124-.006-.47-.07-1.098-.54-.866-.65-1.85-1.813-2.633-3.372-.784-1.559-1.13-3.041-1.135-4.125-.004-.784.152-1.1.22-1.202.124.006.47.07 1.098.54.866.65 1.85 1.813 2.633 3.372m1.787-.899c1.784 3.55 1.8 7.146.035 8.033-1.764.887-4.64-1.272-6.425-4.82-1.784-3.55-1.8-7.146-.036-8.033s4.642 1.271 6.426 4.82m-6.069-11.67a1 1 0 1 1-2 0 1 1 0 0 1 2 0m.18-1.2a.5.5 0 1 0 0-1 .5.5 0 0 0 0 1m1.36.609a.5.5 0 1 1-1 0 .5.5 0 0 1 1 0m15.29 14.207a1 1 0 1 0 0-2 1 1 0 0 0 0 2m-1.455-1.907a.453.453 0 1 1-.906 0 .453.453 0 0 1 .906 0m-.49-11.8a1 1 0 1 0 0-2 1 1 0 0 0 0 2m2.011 1.027a.7.7 0 1 1-1.4 0 .7.7 0 0 1 1.4 0m-13.61 14.592a1 1 0 1 0 0-2 1 1 0 0 0 0 2m.463-2.921a.453.453 0 1 1-.906 0 .453.453 0 0 1 .906 0m.747 4.408a.7.7 0 1 0 0-1.4.7.7 0 0 0 0 1.4"
    clip-rule="evenodd"
  />
</svg>
